X: 6907
T: Cheer Up Old Hag
R: jig
M: 6/8
K: Gmajor
|:A|BGG G2 B|ded d2 c|BAB GBd|e2 f g2 G|
GBd g2 e|fdB c2 A|BGE EDE|c3 B2:|
A|BGE EDE|GED D3|BGE EDE|c3 B2 A|
BGE EDE|GED D2 E|GBA GBA|G3 G2 A|
BGE EDE|GED D3|BGE EDE|c2 d edc|
BGE EDE|GED D2 E|GBA GBA|G3 G2||

